X:1
T:Tower, LMD
T:Tower, LMD
T:Philip Paul Bliss (1838-1876)
T:Public Domain Courtesy of the Cyber Hymnal™
C:Philip Paul Bliss (1838-1876)
Z:Public Domain
Z:Courtesy of the Cyber Hymnal™
%%score ( 1 2 ) ( 3 4 )
L:1/8
Q:1/4=98
M:3/4
K:G
V:1 treble 
V:2 treble 
V:3 bass 
V:4 bass 
V:1
 [DB]2 | [GB][Gc] [Gd]2 [DB]2 | [EG][FA] [GB]2 [GB]2 | [Ec][Ec] [EB][EA] [DG][DF] | [DG]4 [FA]2 | %5
 [FA][GB] [Fc]2 [DF]2 | [DG][DA] [DB]2 [Gd]2 | [Ge][Ge] [Gd][GB] [GB][FA] | G4 [Gd]2 | %9
 [Gd][GB] [Gd]2 [GB]2 | [GB][DG] [GB]2 [DG]2 | [EG][CE] [EG][EA] [DB][DB] | [DA]4 [Fd]2 | %13
 [Gd][GB] [Gd]2 [GB]2 | [GB][DG] [GB]2 [DG]2 | [EG][CE] [EG][EA] !fermata![DB]!fermata![CA] | %16
 [B,G]4 |] %17
V:2
 x2 | x6 | x6 | x6 | x6 | x6 | x6 | x6 | G4 x2 | x6 | x6 | x6 | x6 | x6 | x6 | x6 | x4 |] %17
V:3
 G,2 | G,[G,A,] [G,B,]2 [G,B,]2 | [E,B,][E,B,] [E,B,]2 [E,G,]2 | %3
 [C,G,][C,G,] [C,G,][C,C] [D,B,][D,A,] | [G,B,]4 [D,D]2 | [D,C][D,B,] [D,A,]2 [D,A,]2 | %6
 [G,B,][G,C] [G,D]2 [G,B,]2 | [C,C][E,C] [G,B,][G,D] [D,D][D,D] | [G,,B,]4 [G,B,]2 | %9
 [G,B,]G, [G,B,]2 [G,D]2 | [G,D][G,B,] [G,D]2 [G,B,]2 | [C,C][C,G,] [C,G,][C,G,] [D,G,][D,G,] | %12
 [D,F,]4 [D,C]2 | [G,B,]G, [G,B,]2 [G,D]2 | [G,D][G,B,] [G,D]2 [G,B,]2 | %15
 [C,C][C,G,] [C,G,][C,G,] !fermata![D,G,]!fermata![D,F,] | [G,,G,]4 |] %17
V:4
 G,2 | G, x5 | x6 | x6 | x6 | x6 | x6 | x6 | x6 | x G, x4 | x6 | x6 | x6 | x G, x4 | x6 | x6 | %16
 x4 |] %17

